plasma/desktoptheme/WinSur-dark/icons/printer.svg

<?xml version="1.0" encoding="UTF-8" standalone="no"?>
<svg
   version="1.1"
   viewBox="0 0 22 22"
   id="svg27"
   sodipodi:docname="printer.svg"
   inkscape:version="1.2.1 (9c6d41e410, 2022-07-14, custom)"
   xmlns:inkscape="http://www.inkscape.org/namespaces/inkscape"
   xmlns:sodipodi="http://sodipodi.sourceforge.net/DTD/sodipodi-0.dtd"
   xmlns="http://www.w3.org/2000/svg"
   xmlns:svg="http://www.w3.org/2000/svg"
   xmlns:rdf="http://www.w3.org/1999/02/22-rdf-syntax-ns#"
   xmlns:cc="http://creativecommons.org/ns#"
   xmlns:dc="http://purl.org/dc/elements/1.1/">
  <metadata
     id="metadata31">
    <rdf:RDF>
      <cc:Work
         rdf:about="">
        <dc:format>image/svg+xml</dc:format>
        <dc:type
           rdf:resource="http://purl.org/dc/dcmitype/StillImage" />
      </cc:Work>
    </rdf:RDF>
  </metadata>
  <sodipodi:namedview
     pagecolor="#c8c8c8"
     bordercolor="#666666"
     borderopacity="1"
     objecttolerance="10"
     gridtolerance="10"
     guidetolerance="10"
     inkscape:pageopacity="0"
     inkscape:pageshadow="2"
     inkscape:window-width="1920"
     inkscape:window-height="1005"
     id="namedview29"
     showgrid="true"
     inkscape:snap-intersection-paths="true"
     inkscape:snap-smooth-nodes="true"
     inkscape:snap-bbox="true"
     inkscape:bbox-nodes="true"
     inkscape:snap-bbox-edge-midpoints="true"
     inkscape:zoom="24.588032"
     inkscape:cx="2.7249029"
     inkscape:cy="13.72619"
     inkscape:window-x="0"
     inkscape:window-y="0"
     inkscape:window-maximized="1"
     inkscape:current-layer="svg27"
     inkscape:pagecheckerboard="false"
     inkscape:document-rotation="0"
     inkscape:showpageshadow="0"
     inkscape:deskcolor="#d1d1d1"
     showguides="true"
     showborder="true">
    <inkscape:grid
       type="xygrid"
       id="grid856"
       enabled="true" />
  </sodipodi:namedview>
  <defs
     id="defs3">
    <style
       id="current-color-scheme"
       type="text/css">.ColorScheme-Text { color:#363636; }</style>
  </defs>
  <g
     id="22"
     class="ColorScheme-Text"
     fill="currentColor"
     transform="translate(0,-25)">
    <path
       d="M 7,2 C 5.892,2 5,2.892 5,4 V 5 C 3.338,5 2,6.338 2,8 v 6 c 0,1.662 1.338,3 3,3 v 1 c 0,1.108 0.892,2 2,2 h 8 c 1.108,0 2,-0.892 2,-2 v -1 c 1.662,0 3,-1.338 3,-3 V 8 C 20,6.338 18.662,5 17,5 V 4 C 17,2.892 16.108,2 15,2 Z m 0,2 h 8 V 5 H 7 Z M 5,7 h 12 c 0.554,0 1,0.446 1,1 v 6 c 0,0.554 -0.446,1 -1,1 V 11 C 17,9.892 16.108,9 15,9 H 7 C 5.892,9 5,9.892 5,11 v 4 C 4.446,15 4,14.554 4,14 V 8 C 4,7.446 4.446,7 5,7 Z m 2,4 h 8 v 4 3 H 7 v -1 -2 z m 1,2 v 1 h 6 v -1 z m 0,2 v 1 h 6 v -1 z"
       id="path5"
       style="fill:#ffffff;fill-opacity:1" />
    <rect
       width="22"
       height="22"
       fill-opacity="0"
       id="rect7"
       x="0"
       y="0" />
  </g>
  <g
     id="11">
    <g
       transform="translate(-81,5)"
       id="g22"
       style="color:#363636;fill:#ffffff;fill-opacity:1">
      <path
         d="m 45,15 c 0,0.554 0.446,1 1,1 h 1 v -1 z m 16,0 v 1 h 1 c 0.554,0 1,-0.446 1,-1 z"
         id="path10"
         style="fill:#ffffff;fill-opacity:1" />
      <path
         d="m 46,14 v 3 c 0,1.108 0.892,2 2,2 h 12 c 1.108,0 2,-0.892 2,-2 v -3 h -1 v 3 c 0,0.554 -0.446,1 -1,1 H 48 c -0.554,0 -1,-0.446 -1,-1 v -3 z"
         id="path12"
         style="fill:#ffffff;fill-opacity:1" />
      <rect
         x="47"
         y="5"
         width="14"
         height="7"
         ry="1"
         opacity="0.5"
         id="rect14"
         style="fill:#ffffff;fill-opacity:1" />
      <path
         d="m 49,-6 c -1.108,0 -2,0.892 -2,2 v 7.3047 c 0,0.74358 0.4067,1.3838 1.0059,1.7285 C 48.005504,5.021581 48,5.011716 48,4.999997 v -9 c 0,-0.554 0.446,-1 1,-1 h 10 c 0.554,0 1,0.446 1,1 v 9 C 60,5.011716 59.9945,5.021581 59.9941,5.0332 60.5933,4.6885 61,4.04827 61,3.3047 V -4 c 0,-1.108 -0.892,-2 -2,-2 z"
         id="path16"
         style="fill:#ffffff;fill-opacity:1" />
      <path
         d="m 47,-1 c -1.108,0 -2,0.892 -2,2 v 5 h 4 C 48.446,6 48,5.554 48,5 v -6 z m 13,0 v 6 c 0,0.554 -0.446,1 -1,1 h 4 V 1 c 0,-1.108 -0.892,-2 -2,-2 z"
         id="path18"
         style="fill:#ffffff;fill-opacity:1" />
      <path
         d="m 44,5 c -1.108,0 -2,0.892 -2,2 v 6 c 0,1.108 0.892,2 2,2 h 20 c 1.108,0 2,-0.892 2,-2 V 7 C 66,5.892 65.108,5 64,5 Z m 0,1 h 20 c 0.554,0 1,0.446 1,1 v 6 c 0,0.554 -0.446,1 -1,1 H 44 c -0.554,0 -1,-0.446 -1,-1 V 7 c 0,-0.554 0.446,-1 1,-1 z"
         id="path20"
         style="fill:#ffffff;fill-opacity:1" />
    </g>
    <rect
       x="-43"
       y="-5"
       width="32"
       height="32"
       fill-opacity="0"
       id="rect24"
       style="color:#363636;fill:#363636" />
    <path
       id="rect860"
       style="fill:#ffffff;fill-opacity:1;stroke:none;stroke-width:2"
       d="m -37,11 c -0.554,0 -1,0.446 -1,1 v 6 c 0,0.554 0.446,1 1,1 h 20 c 0.554,0 1,-0.446 1,-1 v -6 c 0,-0.554 -0.446,-1 -1,-1 z m 1,1 h 18 c 0.554,0 1,0.446 1,1 v 4 c 0,0.554 -0.446,1 -1,1 h -18 c -0.554,0 -1,-0.446 -1,-1 v -4 c 0,-0.554 0.446,-1 1,-1 z" />
    <path
       id="rect867"
       style="fill:#ffffff;fill-opacity:1;stroke:none;stroke-width:2"
       d="m -32,0 c -0.553998,0 -1,0.44600165 -1,1 v 9 c 0,0.553998 0.446002,1 1,1 h 1 c -0.554,0 -1,-0.446 -1,-1 V 2 c 0,-0.554 0.446,-1 1,-1 h 8 c 0.554,0 1,0.446 1,1 v 8 c 0,0.554 -0.446,1 -1,1 h 1 c 0.553998,0 1,-0.446002 1,-1 V 1 c 0,-0.55399835 -0.446002,-1 -1,-1 z" />
    <path
       id="rect877"
       style="fill:#ffffff;fill-opacity:1;stroke:none;stroke-width:2"
       d="m -34,19 v 4 h 14 v -4 h -2 c 0.554,0 1,0.446 1,1 v 1 c 0,0.554 -0.446,1 -1,1 h -10 c -0.554,0 -1,-0.446 -1,-1 v -1 c 0,-0.554 0.446,-1 1,-1 z" />
  </g>
  <g
     id="printer">
    <path
       id="rect1160"
       style="fill:#ffffff;fill-rule:evenodd;stroke-width:0.15;stroke-linecap:round;stroke-linejoin:round;paint-order:stroke fill markers"
       d="m -36,50 c -0.553999,0 -1,0.446001 -1,1 v 4 c 0,0.553999 0.446001,1 1,1 h 18 c 0.553999,0 1,-0.446001 1,-1 v -4 c 0,-0.553999 -0.446001,-1 -1,-1 h -2 v 4 c 0,0.553999 -0.446001,1 -1,1 h -12 c -0.553999,0 -1,-0.446001 -1,-1 v -4 z" />
    <rect
       x="-43"
       y="33"
       width="32"
       height="32"
       fill-opacity="0"
       id="rect456"
       style="color:#363636;fill:#363636" />
    <path
       d="m -35,57 v 3 c 0,1.108 0.892,2 2,2 h 12 c 1.108,0 2,-0.892 2,-2 v -3 h -1 v 3 c 0,0.554 -0.446,1 -1,1 h -12 c -0.554,0 -1,-0.446 -1,-1 v -3 z"
       id="path444"
       style="color:#363636;fill:#ffffff;fill-opacity:1" />
    <path
       d="m -32,37 c -1.108,0 -2,0.892 -2,2 v 7.3047 c 0,0.74358 0.4067,1.3838 1.0059,1.7285 C -32.994496,48.02158 -33,48.01172 -33,48 v -9 c 0,-0.554 0.446,-1 1,-1 h 10 c 0.554,0 1,0.446 1,1 v 9 c 0,0.01172 -0.0055,0.02158 -0.0059,0.0332 C -20.4067,47.6885 -20,47.04827 -20,46.3047 V 39 c 0,-1.108 -0.892,-2 -2,-2 z"
       id="path448"
       style="color:#363636;fill:#ffffff;fill-opacity:1" />
    <path
       d="m -33,42.96687 c -1.108,0 -2,0.892 -2,2 v 5 h 4 c -0.554,0 -1,-0.446 -1,-1 v -6 z M -22,43 v 6 c 0,0.554 -0.446,1 -1,1 h 4 v -5 c 0,-1.108 -0.892,-2 -2,-2 z"
       id="path450"
       style="color:#363636;fill:#ffffff;fill-opacity:1"
       sodipodi:nodetypes="ssccscscsccssc" />
    <path
       d="m -37,48 c -1.108,0 -2,0.892 -2,2 v 6 c 0,1.108 0.892,2 2,2 h 20 c 1.108,0 2,-0.892 2,-2 v -6 c 0,-1.108 -0.892,-2 -2,-2 z m 0,1 h 20 c 0.554,0 1,0.446 1,1 v 6 c 0,0.554 -0.446,1 -1,1 h -20 c -0.554,0 -1,-0.446 -1,-1 v -6 c 0,-0.554 0.446,-1 1,-1 z"
       id="path452"
       style="color:#363636;fill:#ffffff;fill-opacity:1" />
    <path
       id="path458"
       style="fill:#ffffff;fill-opacity:1;stroke:none;stroke-width:2"
       d="m -37,49 c -0.554,0 -1,0.446 -1,1 v 6 c 0,0.554 0.446,1 1,1 h 20 c 0.554,0 1,-0.446 1,-1 v -6 c 0,-0.554 -0.446,-1 -1,-1 z m 1,1 h 18 c 0.554,0 1,0.446 1,1 v 4 c 0,0.554 -0.446,1 -1,1 h -18 c -0.554,0 -1,-0.446 -1,-1 v -4 c 0,-0.554 0.446,-1 1,-1 z" />
    <path
       id="path460"
       style="fill:#ffffff;fill-opacity:1;stroke:none;stroke-width:2"
       d="m -32,38 c -0.553998,0 -1,0.446002 -1,1 v 9 c 0,0.553998 0.446002,1 1,1 h 1 c -0.554,0 -1,-0.446 -1,-1 v -8 c 0,-0.554 0.446,-1 1,-1 h 8 c 0.554,0 1,0.446 1,1 v 8 c 0,0.554 -0.446,1 -1,1 h 1 c 0.553998,0 1,-0.446002 1,-1 v -9 c 0,-0.553998 -0.446002,-1 -1,-1 z" />
    <path
       id="path462"
       style="fill:#ffffff;fill-opacity:1;stroke:none;stroke-width:2"
       d="m -34,57 v 4 h 14 v -4 h -2 c 0.554,0 1,0.446 1,1 v 1 c 0,0.554 -0.446,1 -1,1 h -10 c -0.554,0 -1,-0.446 -1,-1 v -1 c 0,-0.554 0.446,-1 1,-1 z" />
    <path
       id="rect551"
       style="fill:#ffffff;fill-rule:evenodd;stroke-width:0.158114;stroke-linecap:round;stroke-linejoin:round;paint-order:stroke fill markers"
       d="m -31,39 c -0.553999,0 -1,0.446001 -1,1 v 8 c 0,0.553999 0.446001,1 1,1 h 8 c 0.553999,0 1,-0.446001 1,-1 v -8 c 0,-0.553999 -0.446001,-1 -1,-1 z m 1,2 h 6 c 0.553999,0 1,0.446001 1,1 0,0.553999 -0.446001,1 -1,1 h -6 c -0.553999,0 -1,-0.446001 -1,-1 0,-0.553999 0.446001,-1 1,-1 z" />
    <rect
       style="fill:#ffffff;fill-rule:evenodd;stroke-width:0.173205;stroke-linecap:round;stroke-linejoin:round;paint-order:stroke fill markers"
       id="rect1217"
       width="8"
       height="2"
       x="-31"
       y="45"
       ry="1" />
    <rect
       style="opacity:1;fill:#ffffff;fill-rule:evenodd;stroke-width:0.15;stroke-linecap:round;stroke-linejoin:round;paint-order:stroke fill markers"
       id="rect4897"
       width="14"
       height="3"
       x="-34"
       y="50"
       ry="0" />
  </g>
  <g
     id="22-22-printer"
     transform="translate(0,-29)">
    <rect
       width="22"
       height="22"
       fill-opacity="0"
       id="rect5686"
       x="0"
       y="29"
       style="color:#363636;fill:#363636" />
    <g
       id="g6636"
       transform="translate(0,-21)">
      <path
         id="rect5692"
         style="opacity:1;fill:#ffffff;fill-rule:evenodd;stroke-width:0.136931;stroke-linecap:round;stroke-linejoin:round;paint-order:stroke fill markers"
         d="M 3.6660156,56 C 2.7426832,56 2,56.742683 2,57.666016 v 7.667968 C 2,66.257317 2.7426832,67 3.6660156,67 H 18.333984 C 19.257317,67 20,66.257317 20,65.333984 V 57.666016 C 20,56.742683 19.257317,56 18.333984,56 Z M 6,60 h 10 c 0.553999,0 1,0.446001 1,1 0,0.553999 -0.446001,1 -1,1 H 6 C 5.446001,62 5,61.553999 5,61 5,60.446001 5.446001,60 6,60 Z"
         sodipodi:nodetypes="ssssssssssssssss" />
      <path
         id="rect5694"
         style="opacity:1;fill:#ffffff;fill-rule:evenodd;stroke-width:0.129047;stroke-linecap:round;stroke-linejoin:round;paint-order:stroke fill markers"
         d="m 6,62 c -1.1079989,0 -2,0.892001 -2,2 v 4 c 0,1.107999 0.8920011,2 2,2 h 10 c 1.107999,0 2,-0.892001 2,-2 v -4 c 0,-1.107999 -0.892001,-2 -2,-2 z m 1,4 h 8 c 0.553999,0 1,0.446001 1,1 0,0.553999 -0.446001,1 -1,1 H 7 C 6.4460006,68 6,67.553999 6,67 6,66.446001 6.4460006,66 7,66 Z"
         sodipodi:nodetypes="ssssssssssssssss" />
      <path
         id="rect5894"
         style="opacity:1;fill:#ffffff;fill-opacity:1;fill-rule:evenodd;stroke-width:0.183712;stroke-linecap:round;stroke-linejoin:round;paint-order:stroke fill markers"
         d="m 7,52 c -1.1079967,0 -2,0.892003 -2,2 v 2 c 0,1.107997 0.8920033,2 2,2 h 8 c 1.107997,0 2,-0.892003 2,-2 v -2 c 0,-1.107997 -0.892003,-2 -2,-2 z m 1.5,2 h 5 c 0.277,0 0.5,0.223 0.5,0.5 0,0.277 -0.223,0.5 -0.5,0.5 h -5 C 8.2230003,55 8,54.777 8,54.5 8,54.223 8.2230003,54 8.5,54 Z" />
    </g>
  </g>
</svg>

<?xml version="1.0" encoding="UTF-8" standalone="no"?>
<svg
   xmlns:dc="http://purl.org/dc/elements/1.1/"
   xmlns:cc="http://creativecommons.org/ns#"
   xmlns:rdf="http://www.w3.org/1999/02/22-rdf-syntax-ns#"
   xmlns:svg="http://www.w3.org/2000/svg"
   xmlns="http://www.w3.org/2000/svg"
   xmlns:sodipodi="http://sodipodi.sourceforge.net/DTD/sodipodi-0.dtd"
   xmlns:inkscape="http://www.inkscape.org/namespaces/inkscape"
   version="1.1"
   viewBox="0 0 22 22"
   id="svg27"
   sodipodi:docname="printer.svg"
   inkscape:version="1.0.1 (3bc2e813f5, 2020-09-07)">
  <metadata
     id="metadata31">
    <rdf:RDF>
      <cc:Work
         rdf:about="">
        <dc:format>image/svg+xml</dc:format>
        <dc:type
           rdf:resource="http://purl.org/dc/dcmitype/StillImage" />
        <dc:title />
      </cc:Work>
    </rdf:RDF>
  </metadata>
  <sodipodi:namedview
     pagecolor="#ffffff"
     bordercolor="#666666"
     borderopacity="1"
     objecttolerance="10"
     gridtolerance="10"
     guidetolerance="10"
     inkscape:pageopacity="0"
     inkscape:pageshadow="2"
     inkscape:window-width="1920"
     inkscape:window-height="932"
     id="namedview29"
     showgrid="true"
     inkscape:snap-intersection-paths="true"
     inkscape:snap-smooth-nodes="true"
     inkscape:snap-bbox="true"
     inkscape:bbox-nodes="true"
     inkscape:snap-bbox-edge-midpoints="true"
     inkscape:zoom="17.386364"
     inkscape:cx="4.8015482"
     inkscape:cy="14.019742"
     inkscape:window-x="0"
     inkscape:window-y="36"
     inkscape:window-maximized="1"
     inkscape:current-layer="svg27"
     inkscape:pagecheckerboard="true"
     inkscape:document-rotation="0">
    <inkscape:grid
       type="xygrid"
       id="grid856" />
  </sodipodi:namedview>
  <defs
     id="defs3">
    <style
       id="current-color-scheme"
       type="text/css">.ColorScheme-Text { color:#363636; }</style>
  </defs>
  <g
     id="22-22-printer"
     class="ColorScheme-Text"
     fill="currentColor">
    <path
       d="m7 2c-1.108 0-2 0.892-2 2v1c-1.662 0-3 1.338-3 3v6c0 1.662 1.338 3 3 3v1c0 1.108 0.892 2 2 2h8c1.108 0 2-0.892 2-2v-1c1.662 0 3-1.338 3-3v-6c0-1.662-1.338-3-3-3v-1c0-1.108-0.892-2-2-2h-8zm0 2h8v1h-8v-1zm-2 3h12c0.554 0 1 0.446 1 1v6c0 0.554-0.446 1-1 1v-4c0-1.108-0.892-2-2-2h-8c-1.108 0-2 0.892-2 2v4c-0.554 0-1-0.446-1-1v-6c0-0.554 0.446-1 1-1zm2 4h8v4 3h-8v-1-2-4zm1 2v1h6v-1h-6zm0 2v1h6v-1h-6z"
       id="path5"
       style="fill:#ffffff;fill-opacity:1" />
    <rect
       width="22"
       height="22"
       fill-opacity="0"
       id="rect7" />
  </g>
  <g
     id="printer">
    <g
       transform="translate(-81,5)"
       id="g22"
       style="color:#363636;fill:#ffffff;fill-opacity:1">
      <path
         d="m 45,15 c 0,0.554 0.446,1 1,1 h 1 v -1 z m 16,0 v 1 h 1 c 0.554,0 1,-0.446 1,-1 z"
         id="path10"
         style="fill:#ffffff;fill-opacity:1" />
      <path
         d="m 46,14 v 3 c 0,1.108 0.892,2 2,2 h 12 c 1.108,0 2,-0.892 2,-2 v -3 h -1 v 3 c 0,0.554 -0.446,1 -1,1 H 48 c -0.554,0 -1,-0.446 -1,-1 v -3 z"
         id="path12"
         style="fill:#ffffff;fill-opacity:1" />
      <rect
         x="47"
         y="5"
         width="14"
         height="7"
         ry="1"
         opacity="0.5"
         id="rect14"
         style="fill:#ffffff;fill-opacity:1" />
      <path
         d="m 49,-6 c -1.108,0 -2,0.892 -2,2 v 7.3047 c 0,0.74358 0.4067,1.3838 1.0059,1.7285 C 48.005504,5.021581 48,5.011716 48,4.999997 v -9 c 0,-0.554 0.446,-1 1,-1 h 10 c 0.554,0 1,0.446 1,1 v 9 C 60,5.011716 59.9945,5.021581 59.9941,5.0332 60.5933,4.6885 61,4.04827 61,3.3047 V -4 c 0,-1.108 -0.892,-2 -2,-2 z"
         id="path16"
         style="fill:#ffffff;fill-opacity:1" />
      <path
         d="m 47,-1 c -1.108,0 -2,0.892 -2,2 v 5 h 4 C 48.446,6 48,5.554 48,5 v -6 z m 13,0 v 6 c 0,0.554 -0.446,1 -1,1 h 4 V 1 c 0,-1.108 -0.892,-2 -2,-2 z"
         id="path18"
         style="fill:#ffffff;fill-opacity:1" />
      <path
         d="m 44,5 c -1.108,0 -2,0.892 -2,2 v 6 c 0,1.108 0.892,2 2,2 h 20 c 1.108,0 2,-0.892 2,-2 V 7 C 66,5.892 65.108,5 64,5 Z m 0,1 h 20 c 0.554,0 1,0.446 1,1 v 6 c 0,0.554 -0.446,1 -1,1 H 44 c -0.554,0 -1,-0.446 -1,-1 V 7 c 0,-0.554 0.446,-1 1,-1 z"
         id="path20"
         style="fill:#ffffff;fill-opacity:1" />
    </g>
    <rect
       x="-43"
       y="-5"
       width="32"
       height="32"
       fill-opacity="0"
       id="rect24"
       style="color:#363636;fill:#363636" />
    <path
       id="rect860"
       style="fill:#ffffff;fill-opacity:1;stroke:none;stroke-width:2"
       d="m -37,11 c -0.554,0 -1,0.446 -1,1 v 6 c 0,0.554 0.446,1 1,1 h 20 c 0.554,0 1,-0.446 1,-1 v -6 c 0,-0.554 -0.446,-1 -1,-1 z m 1,1 h 18 c 0.554,0 1,0.446 1,1 v 4 c 0,0.554 -0.446,1 -1,1 h -18 c -0.554,0 -1,-0.446 -1,-1 v -4 c 0,-0.554 0.446,-1 1,-1 z" />
    <path
       id="rect867"
       style="fill:#ffffff;fill-opacity:1;stroke:none;stroke-width:2"
       d="m -32,0 c -0.553998,0 -1,0.44600165 -1,1 v 9 c 0,0.553998 0.446002,1 1,1 h 1 c -0.554,0 -1,-0.446 -1,-1 V 2 c 0,-0.554 0.446,-1 1,-1 h 8 c 0.554,0 1,0.446 1,1 v 8 c 0,0.554 -0.446,1 -1,1 h 1 c 0.553998,0 1,-0.446002 1,-1 V 1 c 0,-0.55399835 -0.446002,-1 -1,-1 z" />
    <path
       id="rect877"
       style="fill:#ffffff;fill-opacity:1;stroke:none;stroke-width:2"
       d="m -34,19 v 4 h 14 v -4 h -2 c 0.554,0 1,0.446 1,1 v 1 c 0,0.554 -0.446,1 -1,1 h -10 c -0.554,0 -1,-0.446 -1,-1 v -1 c 0,-0.554 0.446,-1 1,-1 z" />
  </g>
</svg>
